X: 32399
T: Piper's Chair, The
R: jig
M: 6/8
K: Gmajor
DGG GFD|Dcc {d}cBc|ded c/B/AG|FAG FED|
DGG {A}GFD|Dcc {d}cBc|ded {d}cAF|1 AGF G2F:|2 AGF GBd||
|:~g3 agf|d2g {a}gfg|GFG ~=f3|A2B cBA|
GBd g2g|d2e fdc|B/c/dB {d}cAF|1 {B}AGF GBd:|2 AGF G2F||

